X:1
T:Title
%%score [ 1 2 ]
L:1/8
Q:1/4=240
M:2/2
K:Bb
V:1 treble nm="Alto" snm="A"
V:2 bass nm="Bass" snm="B"
V:1
 G4"^When the God of merry love" B4 | A4 B4 | A4 G4 |"^Thomas Campion\n(1567-1620)" ^F8 | %4
w: ~When the|God of|mer- ry|love|
w: ~There- with|she the|babe did|kiss,|
[M:2/2] ^F4 F4 | G4 G4 | A4 F4 | B8 | G4 G4 | ^F4 G4 | A6 A2 | G8 | A4 B4 | A4 B4 | c4 B4 | A8 | %16
w: As yet|in his|cra- dle|lay,|Thus his|with- er~'~d|nurse did|say,|Thou a|wan- ton|boy wilt|prove|
w: When a|sud- den|fire out|came|From those|burn- ing|lips of|his,|That did|her with|love en-|flame,|
 B4 c4 | A4 d4 | B4 c4 | d8 |: B4 B4 | B4 d4 | c4 B4 | c4 c4 | d4 G4 | B4 c4 | A6 A2 | G2 G2 z4 :| %28
w: To de-|ceive the|powers a-|bove;|For by|thy con-|tin- ual|smil- ing,|I see|thy power|of be-|guil- ing.|
w: But none|would re-|gard the|same,|So that,|to her|day of|dy- ing,|The old|wretch liv'd|e- ver|cry- ing.|
V:2
 G,4 G,4 | F,4 B,,4 | F,4 G,4 | D,8 |[M:2/2] D,4 B,,4 | E,4 G,4 | F,4 F,4 | B,,8 | E,4 C,4 | %9
 D,4 E,4 | D,8 | G,,8 | D,4 G,4 | D,4 G,4 | F,4 G,4 | D,8 | G,4 A,4 | ^F,4 D,4 | G,4 F,4 | B,,8 |: %20
 B,4 B,4 | B,4 B,4 | A,4 G,4 | F,4 F,4 | D,4 G,4 | E,4 C,4 | D,8 | G,,4 z4 :| %28

